build/img/sprite/icon-trash.svg

<svg width="16" height="16" fill="none" xmlns="http://www.w3.org/2000/svg"><path d="M7 7H5v6h2V7zm4 0H9v6h2V7z" fill="currentColor"/><path d="M12 1c0-.6-.4-1-1-1H5c-.6 0-1 .4-1 1v2H0v2h1v10c0 .6.4 1 1 1h12c.6 0 1-.4 1-1V5h1V3h-4V1zM6 2h4v1H6V2zm7 3v9H3V5h10z" fill="currentColor"/></svg>

<svg width="16" height="16" viewBox="0 0 16 16" fill="none" xmlns="http://www.w3.org/2000/svg">
<path d="M7 7H5V13H7V7Z" fill="currentColor"/>
<path d="M11 7H9V13H11V7Z" fill="currentColor"/>
<path d="M12 1C12 0.4 11.6 0 11 0H5C4.4 0 4 0.4 4 1V3H0V5H1V15C1 15.6 1.4 16 2 16H14C14.6 16 15 15.6 15 15V5H16V3H12V1ZM6 2H10V3H6V2ZM13 5V14H3V5H13Z" fill="currentColor"/>
</svg>
